Papirus/32x32/apps/tlpui.svg

<svg width="32" height="32" version="1.1" xmlns="http://www.w3.org/2000/svg">
 <path d="m3 5c-0.5539994 0-1 0.4460006-1 1v18c0 0.553999 0.4460006 1 1 1h26c0.553999 0 1-0.446001 1-1v-18c0-0.5539994-0.446001-1-1-1zm0 21c-0.5539994 0-1 0.446001-1 1s0.4460006 1 1 1h26c0.553999 0 1-0.446001 1-1s-0.446001-1-1-1z" style="opacity:.2"/>
 <rect transform="matrix(0,-1,-1,0,0,0)" x="-24" y="-29.999882" width="20" height="27.999783" rx="1" ry="1" fill="#4f4f4f"/>
 <path d="m18 8-8 9h6l-0.785156 6.357422 6.785156-8.357422h-6zm-13 2v10h3v-10zm5 0v5.628906l3-3.378906v-2.25zm9 0v4h3v-4zm5 0v10h3v-10zm-2 6.447266-3 3.552734h3zm-12 1.552734v2h3v-2z" style="font-variation-settings:normal;opacity:.2;stop-color:#000000"/>
 <rect x="2.0000033" y="25" width="27.999783" height="2" rx="1" ry="1" fill="#4f4f4f" stop-color="#000000"/>
 <path d="m58.285714-7.0714285-7.857144 9.4285715h0.655286l6.963786-8.3576429zm-12.571429 2.357143v0.785714h3.142857v-0.785714zm4.714285 0v0.785714h3.142859v-0.785714zm9.428571 0v0.785714h3.142857v-0.785714zm4.714287 0v0.785714h3.142856v-0.785714zm-7.681929 4.7142855-0.175214 0.785715h5.643l0.642715-0.785715zm6.1105 1.239858-3.142857 3.842927v0.417215h0.300929l2.841928-3.474429zm-12.571428 1.903v0.785713h3.142858v-0.785713z" style="fill:#ffffff;opacity:.2"/>
 <path d="m 18,7 -8,9 h 6 L 15.214285,22.357141 22,14 h -6 z" fill="#f6a500"/>
 <rect transform="rotate(90)" x="9" y="-27" width="10" height="3" fill="#05ac9c"/>
 <path d="m19 8.9999996v4.0000004h3v-4.0000004zm3 6.4468204-3 3.55318h3z" style="fill:#16be71"/>
 <path d="m10 9v5.629857l3-3.38048v-2.249377zm0 8v2h3v-2z" style="fill:#f57524"/>
 <rect transform="rotate(90)" x="9" y="-8" width="10" height="3.000001" style="fill:#e74b32"/>
 <path transform="matrix(0,-1,-1,0,0,0)" d="m-4-3c0 0.5539982-0.4460018 1-1 1h-1c0.5539982 0 1-0.4460018 1-1v-26c0-0.553997-0.4460018-1-1-1h1c0.5539982 0 1 0.446003 1 1v26zm-3-15-9 8v-0.888672l7.5253906-6.689453 1.4746094-0.421875zm-2 13h-1v-3h1v3zm0-5h-1v-3h1v3zm0-9h-1v-3h1v3zm0-5h-1v-3h1v3zm-5 7.714844-1 0.285156v-5.1875l1-0.8125v3 2.714844zm-1.447266-5.714844-3.552734 3v-0.84375l2.552734-2.15625h1zm-1.552734 12h-1v-3h1v3zm0-5.876953-5.357422 0.662109 0.179688-0.146484 5.177734-0.638672v0.123047zm-8 12.876953c0 0.5539982-0.446003 1-1 1-0.18299 0-0.352757-0.0515794-0.5-0.1367188 0.298533-0.172618 0.5-0.4922729 0.5-0.8632812v-26c0-0.371008-0.201467-0.690663-0.5-0.863281 0.147243-0.08514 0.31701-0.136719 0.5-0.136719 0.553997 0 1 0.446003 1 1v26z" style="fill:#ffffff;font-variation-settings:normal;opacity:.2;stop-color:#000000"/>
</svg>

<svg xmlns="http://www.w3.org/2000/svg" width="32" height="32" version="1.1">
 <rect style="opacity:0.2" width="28" height="19" x="2" y="6" rx="1" ry="1"/>
 <rect style="opacity:0.2" width="28" height="2" x="2" y="26" rx="1" ry="1"/>
 <rect fill="#4f4f4f" width="28" height="19" x="2" y="5" rx="1" ry="1"/>
 <rect fill="#4f4f4f" width="28" height="2" x="2" y="25" rx="1" ry="1"/>
 <path style="fill:#ffffff;opacity:0.2" d="m58.285714-7.0714285-7.857144 9.4285715h0.655286l6.963786-8.3576429zm-12.571429 2.357143v0.785714h3.142857v-0.785714zm4.714285 0v0.785714h3.142859v-0.785714zm9.428571 0v0.785714h3.142857v-0.785714zm4.714287 0v0.785714h3.142856v-0.785714zm-7.681929 4.7142855-0.175214 0.785715h5.643l0.642715-0.785715zm6.1105 1.239858-3.142857 3.842927v0.417215h0.300929l2.841928-3.474429zm-12.571428 1.903v0.785713h3.142858v-0.785713z"/>
 <path style="opacity:0.1" d="M 18,8 10,17 H 16 L 15.215,23.357 22,15 H 16 Z M 5,10 V 20 H 8 V 10 Z M 10,10 V 15.631 L 13,12.248 V 10 Z M 19,10 V 14 H 22 V 10 Z M 24,10 V 20 H 27 V 10 Z M 22,16.447 19,20 H 22 Z M 10,18 V 20 H 13 V 18 Z"/>
 <path fill="#f6a500" d="m 18,7 -8,9 h 6 L 15.214285,22.357141 22,14 h -6 z"/>
 <rect fill="#05ac9c" width="3" height="10" x="24" y="9"/>
 <path style="fill:#16be71" d="M 19,9 V 13 H 22 V 9 Z M 22,15.447 19,19 H 22 Z"/>
 <path style="fill:#f57524" d="M 10,9 V 14.63 L 13,11.249 V 9 Z M 10,17 V 19 H 13 V 17 Z"/>
 <rect style="fill:#e74b32" width="3" height="10" x="5" y="9"/>
 <path style="fill:#ffffff;opacity:0.1" d="M 3 5 C 2.446 5 2 5.446 2 6 L 2 7 C 2 6.446 2.446 6 3 6 L 29 6 C 29.554 6 30 6.446 30 7 L 30 6 C 30 5.446 29.554 5 29 5 L 3 5 z"/>
 <path style="fill:#ffffff;opacity:0.1" d="M 3 25 C 2.446 25 2 25.446 2 26 C 2 26.183 2.0516 26.353 2.1367 26.5 C 2.3093 26.201 2.629 26 3 26 L 29 26 C 29.371 26 29.691 26.201 29.863 26.5 C 29.948 26.353 30 26.183 30 26 C 30 25.446 29.554 25 29 25 L 3 25 z"/>
 <path style="fill:#ffffff;opacity:0.2" d="M 18,7 10,16 H 10.889 L 17.578,8.4746 Z M 5,9 V 10 H 8 V 9 Z M 10,9 V 10 H 13 V 9 Z M 19,9 V 10 H 22 V 9 Z M 24,9 V 10 H 27 V 9 Z M 16.285,14 16,15 H 21.188 L 22,14 H 19 Z M 22,15.447 19,19 H 19.844 L 22,16.447 Z M 10,17 V 18 H 13 V 17 Z"/>
</svg>
